X:1
T:My Lord, What a Morning!
T:My Lord, What a Morning!
T:African-American Spiritual
T:Public Domain Courtesy of the Cyber Hymnal™
C:African-American Spiritual
Z:Public Domain
Z:Courtesy of the Cyber Hymnal™
%%score ( 1 2 ) ( 3 4 )
L:1/8
M:4/4
K:G
V:1 treble 
V:2 treble 
V:3 bass 
V:4 bass 
V:1
 [GB]2 [GB]4 [FA]>[FB] | [DG]2 [DG]6 | [Fd]2 [Fd]4 [GB]>[Gd] | [FA]2 [FA]4 [Fd]2 | %4
w: ~ ~ ~ ~|~ ~|~ ~ ~ ~|~ ~ ~|
w: My Lord, what a|morn- ing!|My Lord, what a|morn- ing! O|
w: ~ ~ ~ ~|~ ~|~ ~ ~ ~|~ ~ ~|
w: ~ ~ ~ ~|~ ~|~ ~ ~ ~|~ ~ ~|
 [GB]2 [GB]4 [Fc]>[FA] | [EG]2 [EG]4 [Gc]>[Gc] | [GB]3 G [GA]2 [FA]2 | [DG]6 || [DG]2 | %9
w: ~ ~ ~ ~|~ ~ ~ ~|~ ~ ~ ~|~|You’ll|
w: my Lord, what a|morn- ing, When the|stars be- gin to|fall.|You’ll|
w: ~ ~ ~ ~|~ ~ ~ ~|~ ~ ~ ~|~|You’ll|
w: ~ ~ ~ ~|~ ~ ~ ~|~ ~ ~ ~|~|You’ll|
 [GB]3 [GB] [FB] [EA]3 | [DG]3 [DG] [GB]2 [Gd]2 | [Ge]2 [Gd]2 [Fc]2 [GB]2 | [FA]6 z2 | %13
w: hear a sin- ner|mourn, To wake the|na- tions un- der-|ground!|
w: hear a sin- ner|pray, To wake the|na- tions un- der-|ground!|
w: hear a Christ- ian|shout, To wake the|na- tions un- der-|ground!|
w: hear a Christ- ian|sing, To wake the|na- tions un- der-|ground!|
 [GB][GB][GB][GB] [Ec]2 [FA]2 | [EG]6 [Gc]>[Gc] | [GB]3 G [GA]2 [FA]2 | [DG]8 |] %17
w: ||||
w: Look- ing to my God’s right|hand, When the|stars be- gin to|fall!|
w: ||||
w: ||||
V:2
 x8 | x8 | x8 | x8 | x8 | x8 | x3 G x4 | x6 || x2 | x8 | x8 | x8 | x8 | x8 | x8 | x3 G x4 | x8 |] %17
V:3
 [G,D]2 [G,D]4 [D,C]>[D,D] | [G,B,]2 [G,B,]6 | [B,,B,]2 [B,,B,]4 [E,B,]>[E,G,] | %3
 [D,A,]2 [D,A,]4 [D,C]2 | [G,B,]2 [G,D]4 [D,C]>[D,C] | [E,B,]2 [E,B,]4 [C,E]>[C,E] | %6
 [D,D]3 [D,B,] [D,C]2 [D,C]2 | [G,B,]6 || [G,B,]2 | [G,D]3 [G,D] [D,D] [D,C]3 | %10
 [G,B,]3 [G,B,] [G,D]2 [B,D]2 | C2 [B,D]2 [A,D]2 [G,D]2 | [D,D]6 z2 | %13
 [G,D][G,D][G,D][G,D] [A,C]2 [D,C]2 | [E,B,]6 [C,E]>[C,E] | [D,D]3 [D,B,] [D,C]2 [D,C]2 | %16
 [G,B,]8 |] %17
V:4
 x8 | x8 | x8 | x8 | x8 | x8 | x8 | x6 || x2 | x8 | x8 | C2 x6 | x8 | x8 | x8 | x8 | x8 |] %17

